static/img/pages/customers/logos/toggle.svg

<svg width="108" height="16" viewBox="0 0 108 16" fill="none" xmlns="http://www.w3.org/2000/svg">
<path fill-rule="evenodd" clip-rule="evenodd" d="M7.93635 2.93979H12.7984V0.500788H0.360352V2.94079H5.22235V15.4808H7.93635V2.94079V2.93979ZM107.532 0.500788H96.4454V15.4808H107.64V13.1058H99.0564V9.10379H106.57V6.72879H99.0564V2.87679H107.532V0.499789V0.500788ZM83.0753 15.4798H93.6474V13.1048H85.7074V0.500788H83.0753V15.4808V15.4798ZM79.3434 13.4448V7.10779H76.7433V12.2508C76.2433 12.6168 75.6864 12.8998 75.0954 13.0898C74.4354 13.3021 73.7456 13.4075 73.0524 13.4018C72.2654 13.4018 71.5573 13.2648 70.9223 12.9918C70.3056 12.7284 69.749 12.3422 69.2864 11.8568C68.8193 11.363 68.4586 10.7786 68.2263 10.1398C67.9741 9.44791 67.8487 8.71619 67.8564 7.97979C67.8464 6.58679 68.3564 5.23979 69.2864 4.20079C69.7274 3.71391 70.2616 3.32048 70.8574 3.04379C71.4709 2.76178 72.1391 2.61871 72.8144 2.62479C73.2944 2.62479 73.7344 2.66379 74.1344 2.74179C74.8711 2.87698 75.5731 3.15927 76.1983 3.57179C76.5033 3.77379 76.8024 3.99679 77.0924 4.24079L78.7963 2.23579C78.4155 1.91397 78.0103 1.6221 77.5844 1.36279C77.1648 1.10963 76.7222 0.897002 76.2624 0.727789C75.7701 0.548492 75.2622 0.415253 74.7454 0.329789C74.1427 0.231867 73.5329 0.185034 72.9223 0.189789C71.7723 0.189789 70.7134 0.397788 69.7454 0.812788C68.8143 1.20083 67.9699 1.77038 67.2614 2.48822C66.5528 3.20606 65.9943 4.05781 65.6183 4.99379C65.23 5.95267 65.033 6.97826 65.0384 8.01279C65.0384 9.11979 65.2284 10.1468 65.6064 11.0948C65.9684 12.018 66.5149 12.8578 67.2123 13.5628C67.925 14.2744 68.7758 14.8325 69.7123 15.2028C70.6873 15.5968 71.7724 15.7928 72.9664 15.7928C73.6364 15.7928 74.2764 15.7328 74.8874 15.6108C76.0222 15.3897 77.1068 14.9623 78.0873 14.3498C78.5453 14.0628 78.9644 13.7598 79.3434 13.4448ZM61.9294 13.4448V7.10779H59.3324V12.2508C58.8314 12.6168 58.2743 12.8998 57.6843 13.0898C57.0244 13.3021 56.3346 13.4075 55.6413 13.4018C54.8553 13.4018 54.1454 13.2648 53.5124 12.9918C52.8949 12.7287 52.3375 12.3425 51.8744 11.8568C51.4074 11.3629 51.0466 10.7786 50.8144 10.1398C50.562 9.44792 50.4367 8.71619 50.4444 7.97979C50.4344 6.58679 50.9444 5.23979 51.8744 4.20079C52.3154 3.71379 52.8504 3.32079 53.4464 3.04379C54.0593 2.76204 54.7268 2.61897 55.4014 2.62479C55.8814 2.62479 56.3214 2.66379 56.7234 2.74179C57.1224 2.82079 57.4893 2.92979 57.8253 3.06579C58.1603 3.20279 58.4804 3.37079 58.7854 3.57279C59.0914 3.77379 59.3914 3.99679 59.6814 4.24079L61.3854 2.23579C61.0039 1.91419 60.5984 1.62233 60.1723 1.36279C59.7529 1.10956 59.3102 0.896935 58.8503 0.727789C58.3587 0.548611 57.8516 0.415374 57.3354 0.329789C56.732 0.231811 56.1215 0.184979 55.5104 0.189789C54.3604 0.189789 53.3014 0.397788 52.3334 0.812788C51.3971 1.20829 50.5477 1.78386 49.8334 2.50679C49.132 3.22068 48.5787 4.06624 48.2054 4.99479C47.8178 5.95348 47.6214 6.97873 47.6273 8.01279C47.6273 9.11979 47.8164 10.1468 48.1944 11.0948C48.5565 12.0178 49.1026 12.8574 49.7994 13.5628C50.5121 14.2747 51.3633 14.8328 52.3004 15.2028C53.2754 15.5968 54.3604 15.7928 55.5534 15.7928C56.2244 15.7928 56.8633 15.7328 57.4753 15.6108C58.6101 15.3896 59.6947 14.9622 60.6754 14.3498C61.114 14.0773 61.5333 13.7749 61.9304 13.4448H61.9294ZM24.0404 2.70379C26.9484 2.70379 29.3274 5.08979 29.3274 8.00879C29.3274 10.9268 26.9484 13.3148 24.0404 13.3148C21.1344 13.3148 18.7554 10.9268 18.7554 8.00879C18.7554 5.09079 21.1344 2.70379 24.0404 2.70379V2.70379ZM24.0404 0.206789C19.7654 0.206789 16.2684 3.71679 16.2684 8.00879C16.2684 12.2988 19.7654 15.8118 24.0404 15.8118C28.3164 15.8118 31.8144 12.2998 31.8144 8.00879C31.8144 3.71679 28.3164 0.206789 24.0404 0.206789V0.206789Z" fill="white"/>
<path fill-rule="evenodd" clip-rule="evenodd" d="M37.4541 0.189966H31.4561C32.5001 1.20306 33.3298 2.41571 33.8958 3.75583C34.4619 5.09596 34.7527 6.5362 34.7511 7.99096C34.7525 9.44593 34.4615 10.8863 33.8953 12.2266C33.329 13.5669 32.4992 14.7797 31.4551 15.793H37.4531C41.6801 15.793 45.1381 12.283 45.1381 7.99096C45.1381 3.70096 41.6801 0.188965 37.4541 0.188965" fill="#FFA852"/>
</svg>

<svg width="108" height="16" viewBox="0 0 108 16" fill="none" xmlns="http://www.w3.org/2000/svg"><path fill-rule="evenodd" clip-rule="evenodd" d="M7.936 2.94h4.862V.5H.36v2.44h4.862v12.54h2.714V2.94zM107.532.5H96.445v14.98h11.195v-2.374h-8.584V9.104h7.514V6.729h-7.514V2.877h8.476V.5zM83.075 15.48h10.572v-2.375h-7.94V.5h-2.632v14.98-.001zm-3.732-2.035V7.108h-2.6v5.143a5.79 5.79 0 01-1.648.839c-.66.212-1.35.318-2.043.312-.787 0-1.495-.137-2.13-.41a4.94 4.94 0 01-1.636-1.135 4.97 4.97 0 01-1.06-1.717 6.12 6.12 0 01-.37-2.16 5.61 5.61 0 011.43-3.78 4.91 4.91 0 011.571-1.156 4.587 4.587 0 011.957-.42c.48 0 .92.04 1.32.118a5.575 5.575 0 012.064.83c.305.202.604.425.894.669l1.704-2.005a9.662 9.662 0 00-1.212-.873 7.72 7.72 0 00-1.322-.635c-.492-.18-1-.313-1.517-.398a10.841 10.841 0 00-1.823-.14c-1.15 0-2.209.208-3.177.623a7.595 7.595 0 00-4.127 4.18 7.933 7.933 0 00-.58 3.02c0 1.107.19 2.134.568 3.082a7.298 7.298 0 001.606 2.468 7.378 7.378 0 002.5 1.64c.975.394 2.06.59 3.254.59.67 0 1.31-.06 1.921-.182a9.451 9.451 0 003.2-1.261c.458-.287.877-.59 1.256-.905zm-17.414 0V7.108h-2.597v5.143a5.818 5.818 0 01-1.648.839c-.66.212-1.35.318-2.043.312-.786 0-1.496-.137-2.129-.41a4.937 4.937 0 01-1.638-1.135 4.97 4.97 0 01-1.06-1.717 6.116 6.116 0 01-.37-2.16 5.61 5.61 0 011.43-3.78c.441-.486.976-.88 1.572-1.156a4.586 4.586 0 011.955-.42c.48 0 .92.04 1.322.118.4.079.766.188 1.102.324.335.137.655.305.96.507.306.2.606.424.896.668l1.704-2.005a9.757 9.757 0 00-1.213-.873A7.7 7.7 0 0058.85.728 8.469 8.469 0 0057.335.33 10.854 10.854 0 0055.51.19c-1.15 0-2.209.208-3.177.623a7.759 7.759 0 00-2.5 1.694 7.59 7.59 0 00-1.628 2.488 7.931 7.931 0 00-.578 3.018c0 1.107.19 2.134.567 3.082a7.312 7.312 0 001.605 2.468 7.367 7.367 0 002.501 1.64c.975.394 2.06.59 3.253.59a9.8 9.8 0 001.922-.182 9.458 9.458 0 003.2-1.261c.439-.273.858-.575 1.255-.905zM24.04 2.704c2.908 0 5.287 2.386 5.287 5.305 0 2.918-2.379 5.306-5.287 5.306-2.906 0-5.285-2.388-5.285-5.306s2.38-5.305 5.285-5.305zm0-2.497c-4.275 0-7.772 3.51-7.772 7.802 0 4.29 3.497 7.803 7.772 7.803 4.276 0 7.774-3.512 7.774-7.803 0-4.292-3.498-7.802-7.774-7.802z" fill="#fff"/><path fill-rule="evenodd" clip-rule="evenodd" d="M37.454.19h-5.998a10.853 10.853 0 013.295 7.801 10.857 10.857 0 01-3.296 7.802h5.998c4.227 0 7.685-3.51 7.685-7.802 0-4.29-3.458-7.802-7.684-7.802" fill="#FFA852"/></svg>
